X:19052
T:Sweet Betsy from Pike
T:Villikins and his Dinah
R:Waltz
C:Trad.
O:USA after England
Z:Paul Hardy's Session Tunebook 2015 (see www.paulhardy.net). Creative Commons cc by-nc-sa licenced.
M:3/4
L:1/4
Q:1/4=160
K:G
G/2G/2|"G" G B d|"D" d c A|"G" A G G|G2 G/G/|"D" G B d|"G" g g g|"Bm" f/2f/2 d d|"D" d2 d|
"G" g g g|"Bm" f d B|"C" c d e|"D" d2 G/A/|"G" B B B|"C" d c A|"G" A G "D"F|"G" G2 G|]

